icon/pk/sent-to-back.svg

<svg viewBox="0 0 48 48" fill="none" xmlns="http://www.w3.org/2000/svg" height="1em" width="1em">
  <path d="M30 18H41C41.5523 18 42 18.4477 42 19V41C42 41.5523 41.5523 42 41 42H19C18.4477 42 18 41.5523 18 41V30" stroke="black" stroke-width="4" stroke-linecap="round" stroke-linejoin="round"/>
  <path d="M9.96906 6H6V10.0336" stroke="black" stroke-width="4" stroke-linecap="round" stroke-linejoin="round"/>
  <path d="M9.99705 30H6V26.012" stroke="black" stroke-width="4" stroke-linecap="round" stroke-linejoin="round"/>
  <path d="M26 30H29.9971V26.012" stroke="black" stroke-width="4" stroke-linecap="round" stroke-linejoin="round"/>
  <path d="M26.0023 6H30V9.99785" stroke="black" stroke-width="4" stroke-linecap="round" stroke-linejoin="round"/>
  <path d="M16.0283 6H20.0083" stroke="black" stroke-width="4" stroke-linecap="round"/>
  <path d="M6 16V20.0148" stroke="black" stroke-width="4" stroke-linecap="round" stroke-linejoin="round"/>
  <path d="M30 16V20.0148" stroke="black" stroke-width="4" stroke-linecap="round" stroke-linejoin="round"/>
  <path d="M15.9922 30H19.9996" stroke="black" stroke-width="4" stroke-linecap="round" stroke-linejoin="round"/>
</svg>

<svg width="48" height="48" fill="none" xmlns="http://www.w3.org/2000/svg"><path d="M30 18h11a1 1 0 0 1 1 1v22a1 1 0 0 1-1 1H19a1 1 0 0 1-1-1V30M9.97 6H6v4.034M9.997 30H6v-3.988" stroke="#000" stroke-width="4" stroke-linecap="round" stroke-linejoin="round"/><path d="M26 30h3.997v-3.988M26.002 6H30v3.998" stroke="#000" stroke-width="4" stroke-linecap="round" stroke-linejoin="round"/><path d="M16.028 6h3.98" stroke="#000" stroke-width="4" stroke-linecap="round"/><path d="M6 16v4.015M30 16v4.015M15.992 30H20" stroke="#000" stroke-width="4" stroke-linecap="round" stroke-linejoin="round"/></svg>
